X: 1
T: Shibolet ba-sade
T: Sheaves in the Field
O: Israel
Z: John Chambers <jc@trillian.mit.edu> http://trillian.mit.edu/~jc/music/
M: 2/4
L: 1/8
K: Dm
|: "Dm"FA2A | "Gm"GFG2 | "Dm"F/G/A- Ac | "Gm"G2G2 | "Dm"FG2F | "Am"E>F EC | "Dm"D4- | D2 z2 :|
|| "F"Ac2c | c2c2 | "Gm"c>d Bc | AB AG | "Dm"FA2A | "Gm"G2A2 |
| "Dm"F2G2 | "Gm"FEFE | "Dm"D/C/D2 C | DC D2 | "Gm"zF2E | DG "Am"EC | "Dm"D4- | D2 z2 |]
%%sep 10 10 500
P: in Em:
K: Em
|: "Em"GB2B | "Am"AGA2 | "Em"G/A/B2d | "Am"A2A2 | "Em"GA2G | "Bm"F>G FD | "Em"E4- | E2 z2 :|
| "G"Bd2d | d2d2 | "Am"d>e cd | Bc BA | "Em"GB2B | "Am"A2B2 |
| "Em"G2A2 | "Am"GF GF | "Em"E/D/E2 D | ED E2 | "Am"zG2F EA | "Bm"FD | "Em"E4- | E2 z2 |]
